outputs/icons/editor/font_size_increase_round.svg

<svg xmlns="http://www.w3.org/2000/svg" width="1200" height="1200" fill="none"><g clip-path="url(#a)"><path fill="#000" d="M130.499 950c24 0 45.501-15 53-37.5L234 771h282.5L566 912c8 23 29.5 38 53.5 38 39.5 0 66.5-39.5 52.5-76L459.5 308.5c-13-35-47-58.5-84.5-58.5s-71.5 23.5-84.5 58.5L77.999 874c-14 36.5 13.5 76 52.5 76M372 380h6l101.5 289.5H270.499zm378 220c0-27.5 22.5-50 50-50h100V450c0-27.5 22.5-50 50-50s50 22.5 50 50v100h100c27.5 0 50 22.5 50 50s-22.5 50-50 50h-100v100c0 27.5-22.5 50-50 50s-50-22.5-50-50V650H800c-27.5 0-50-22.5-50-50"/></g><defs><clipPath id="a"><path fill="#fff" d="M0 0h1200v1200H0z"/></clipPath></defs></svg>

<svg width="1200" height="1200" viewBox="0 0 1200 1200" fill="none" xmlns="http://www.w3.org/2000/svg"><g clip-path="url(#clip0_238_231)"><path d="M130.499 950C154.499 950 176 935 183.499 912.5L234 771H516.5L566 912C574 935 595.5 950 619.5 950C659 950 686 910.5 672 874L459.5 308.5C446.5 273.5 412.5 250 375 250C337.5 250 303.5 273.5 290.5 308.5L77.999 874C63.999 910.5 91.499 950 130.499 950ZM372 380H378L479.5 669.5H270.499L372 380ZM750 600C750 572.5 772.5 550 800 550H900V450C900 422.5 922.5 400 950 400C977.5 400 1000 422.5 1000 450V550H1100C1127.5 550 1150 572.5 1150 600C1150 627.5 1127.5 650 1100 650H1000V750C1000 777.5 977.5 800 950 800C922.5 800 900 777.5 900 750V650H800C772.5 650 750 627.5 750 600Z" fill="black"/></g><defs><clipPath id="clip0_238_231"><path width="24" fill="white" d="M0 0H1200V1200H0V0z"/></clipPath></defs></svg>
